img/i_tw.svg

<svg width="26" height="21" viewBox="0 0 26 21" fill="none" xmlns="http://www.w3.org/2000/svg">
<path d="M25.8405 2.48608C24.89 2.90754 23.8676 3.1926 22.7954 3.31991C23.8902 2.66399 24.7303 1.62615 25.1269 0.387461C24.1025 0.995142 22.9674 1.43598 21.7603 1.6736C20.7932 0.643661 19.4154 0 17.8896 0C14.9623 0 12.5881 2.37419 12.5881 5.3015C12.5881 5.71703 12.6352 6.12149 12.7261 6.50974C8.32014 6.28873 4.4135 4.17825 1.79853 0.969839C1.34228 1.75267 1.08054 2.66399 1.08054 3.63541C1.08054 5.47427 2.01717 7.09766 3.43892 8.04812C2.57029 8.02084 1.75227 7.78244 1.03784 7.3843C1.03745 7.40684 1.03745 7.42937 1.03745 7.45151C1.03745 10.0202 2.86563 12.1627 5.29043 12.6494C4.84603 12.7712 4.37673 12.8356 3.89399 12.8356C3.5516 12.8356 3.21988 12.8028 2.89647 12.7411C3.57097 14.8469 5.52844 16.3797 7.84886 16.4228C6.03412 17.845 3.74849 18.6922 1.26399 18.6922C0.836995 18.6922 0.413951 18.6673 0 18.6179C2.34493 20.1227 5.13228 21 8.12601 21C17.8774 21 23.2101 12.9218 23.2101 5.9155C23.2101 5.6858 23.205 5.45688 23.1947 5.22994C24.2314 4.48269 25.13 3.54922 25.8405 2.48608Z" fill="#979DA6"/>
</svg>

<svg xmlns="http://www.w3.org/2000/svg" width="26" height="21" fill="none" viewBox="0 0 26 21">
  <path fill="#7D8490" d="M25.84 2.486a10.54 10.54 0 0 1-3.045.834A5.316 5.316 0 0 0 25.127.387a10.613 10.613 0 0 1-3.367 1.287A5.296 5.296 0 0 0 17.89 0a5.302 5.302 0 0 0-5.164 6.51A15.05 15.05 0 0 1 1.8.97a5.279 5.279 0 0 0-.718 2.665c0 1.84.936 3.463 2.358 4.413a5.264 5.264 0 0 1-2.401-.664v.068a5.305 5.305 0 0 0 4.252 5.197 5.282 5.282 0 0 1-2.394.092 5.307 5.307 0 0 0 4.953 3.682 10.637 10.637 0 0 1-6.585 2.27c-.427 0-.85-.026-1.264-.075A14.996 14.996 0 0 0 8.126 21c9.751 0 15.084-8.078 15.084-15.085 0-.23-.005-.458-.015-.685a10.75 10.75 0 0 0 2.645-2.744Z"/>
</svg>
